X: 1
T: GRAPE-VINE TWISE -- JIG
B: Ryan's Mammoth Collection of Fiddle Tunes
R: jig
M: 2/4
L: 1/16
Z: Contributed 20020513180321 by John Chambers jmchambers:rcn.com
K: G
uG2 "segno"\
| {A}vBGEG DED2 | {B}ucABG EGG2 | {A}vBGEG DED2 | B,A,G,B, (DG3) |
  {A}vBGEG DED2 | {B}ucABG EGG2 | {A}vBGEG DED2 | {B}AGBd g2z2 Hy|]
(vBd)zvd u"4"edgz | (vBd)zvd u"4"edBG | (vBd)zvd u"4"edgz | ugedB AGG2 |
(vBd)zvd u"4"edgz | (vBd)zvd u"4"edBG | (uBd)zud v"4"edef | gedB AGFA "_D.S."[|]"segno"|]
